Lila_HD/actions/scalable/tab-new-symbolic.svg

<?xml version="1.0" encoding="UTF-8"?>
<!-- Created with Inkscape (http://www.inkscape.org/) -->
<svg version="1.1" viewBox="0 0 16 16" xmlns="http://www.w3.org/2000/svg" xmlns:cc="http://creativecommons.org/ns#" xmlns:dc="http://purl.org/dc/elements/1.1/" xmlns:rdf="http://www.w3.org/1999/02/22-rdf-syntax-ns#">
<metadata>
<rdf:RDF>
<cc:Work rdf:about="">
<dc:format>image/svg+xml</dc:format>
<dc:type rdf:resource="http://purl.org/dc/dcmitype/StillImage"/>
<dc:title/>
</cc:Work>
</rdf:RDF>
</metadata>
<g transform="translate(9379.3 -4843.2)">
<path transform="translate(-9379.3 4843.2)" d="m1 1v0.65625 11.344h-1v2h2.3438 0.65625v-0.65625-11.344h10v11.344 0.65625h1.3438 1.6562v-2h-1v-12h-13.344-0.65625zm6 4v3h-3v2h3v3h2v-3h3v-2h-3v-3h-2z" color="#000000" fill="#999" fill-opacity=".91237" style="block-progression:tb;text-indent:0;text-transform:none"/>
</g>
</svg>

<?xml version="1.0" encoding="UTF-8" standalone="no"?>
<!-- Created with Inkscape (http://www.inkscape.org/) -->

<svg
   xmlns:dc="http://purl.org/dc/elements/1.1/"
   xmlns:cc="http://creativecommons.org/ns#"
   xmlns:rdf="http://www.w3.org/1999/02/22-rdf-syntax-ns#"
   xmlns:svg="http://www.w3.org/2000/svg"
   xmlns="http://www.w3.org/2000/svg"
   xmlns:sodipodi="http://sodipodi.sourceforge.net/DTD/sodipodi-0.dtd"
   xmlns:inkscape="http://www.inkscape.org/namespaces/inkscape"
   width="15.999998"
   height="15.999998"
   id="svg13094"
   version="1.1"
   inkscape:version="0.48.3.1 r9886"
   sodipodi:docname="tab-new.svg">
  <sodipodi:namedview
     id="base"
     pagecolor="#ffffff"
     bordercolor="#666666"
     borderopacity="1.0"
     inkscape:pageopacity="0.0"
     inkscape:pageshadow="2"
     inkscape:zoom="32"
     inkscape:cx="7.9869117"
     inkscape:cy="8.9672574"
     inkscape:document-units="px"
     inkscape:current-layer="layer1"
     showgrid="true"
     inkscape:snap-bbox="true"
     inkscape:bbox-paths="true"
     inkscape:bbox-nodes="true"
     inkscape:snap-bbox-edge-midpoints="true"
     inkscape:snap-bbox-midpoints="true"
     inkscape:object-paths="true"
     inkscape:snap-intersection-paths="true"
     inkscape:object-nodes="true"
     inkscape:snap-smooth-nodes="true"
     inkscape:snap-midpoints="true"
     inkscape:snap-object-midpoints="true"
     inkscape:snap-center="true"
     showguides="false"
     inkscape:guide-bbox="true"
     inkscape:window-width="1920"
     inkscape:window-height="1035"
     inkscape:window-x="-1"
     inkscape:window-y="23"
     inkscape:window-maximized="1"
     inkscape:snap-global="true"
     fit-margin-top="0"
     fit-margin-left="0"
     fit-margin-right="0"
     fit-margin-bottom="0"
     showborder="true"
     inkscape:showpageshadow="false">
    <sodipodi:guide
       orientation="0,1"
       position="-25.000065,930.61288"
       id="guide4700" />
    <sodipodi:guide
       orientation="0,1"
       position="576.71881,328.8939"
       id="guide4702" />
    <sodipodi:guide
       orientation="1,0"
       position="576.71893,489.70397"
       id="guide4706" />
    <sodipodi:guide
       orientation="1,0"
       position="54.999936,930.61288"
       id="guide4708" />
    <sodipodi:guide
       orientation="0,1"
       position="-25.000065,850.61298"
       id="guide4710" />
    <sodipodi:guide
       orientation="0,1"
       position="536.71881,408.89382"
       id="guide4712" />
    <sodipodi:guide
       orientation="1,0"
       position="496.71881,408.89382"
       id="guide4714" />
    <inkscape:grid
       type="xygrid"
       id="grid3216"
       empspacing="5"
       visible="true"
       enabled="true"
       snapvisiblegridlinesonly="true"
       originx="-25.000011px"
       originy="-219.00003px" />
    <sodipodi:guide
       orientation="-0.70710664,0.70710692"
       position="3.9999896,-246.00003"
       id="guide3847" />
    <sodipodi:guide
       orientation="0.70710594,0.70710762"
       position="4.9999896,-245.00003"
       id="guide3849" />
    <sodipodi:guide
       orientation="-0.70710681,0.70710676"
       position="6.9999896,-212.00003"
       id="guide3851" />
  </sodipodi:namedview>
  <defs
     id="defs13096" />
  <metadata
     id="metadata13099">
    <rdf:RDF>
      <cc:Work
         rdf:about="">
        <dc:format>image/svg+xml</dc:format>
        <dc:type
           rdf:resource="http://purl.org/dc/dcmitype/StillImage" />
        <dc:title />
      </cc:Work>
    </rdf:RDF>
  </metadata>
  <g
     transform="translate(9379.308,-4843.1988)"
     id="layer1"
     inkscape:groupmode="layer"
     inkscape:label="Camada 1">
    <path
       style="font-size:medium;font-style:normal;font-variant:normal;font-weight:normal;font-stretch:normal;text-indent:0;text-align:start;text-decoration:none;line-height:normal;letter-spacing:normal;word-spacing:normal;text-transform:none;direction:ltr;block-progression:tb;writing-mode:lr-tb;text-anchor:start;baseline-shift:baseline;color:#000000;fill:#999999;fill-opacity:0.9123711682;stroke:none;stroke-width:2;marker:none;visibility:visible;display:inline;overflow:visible;enable-background:accumulate;font-family:Sans;-inkscape-font-specification:Sans"
       d="M 1 1 L 1 1.65625 L 1 13 L 0 13 L 0 15 L 2.34375 15 L 3 15 L 3 14.34375 L 3 3 L 13 3 L 13 14.34375 L 13 15 L 14.34375 15 L 16 15 L 16 13 L 15 13 L 15 1 L 1.65625 1 L 1 1 z M 7 5 L 7 8 L 4 8 L 4 10 L 7 10 L 7 13 L 9 13 L 9 10 L 12 10 L 12 8 L 9 8 L 9 5 L 7 5 z "
       transform="translate(-9379.308,4843.1988)"
       id="path3950" />
  </g>
</svg>
